dist/assets/images/album.svg

<?xml version="1.0" encoding="UTF-8"?>
<svg width="24px" height="24px" viewBox="0 0 24 24" version="1.1" xmlns="http://www.w3.org/2000/svg" xmlns:xlink="http://www.w3.org/1999/xlink">
    <!-- Generator: Sketch 52.5 (67469) - http://www.bohemiancoding.com/sketch -->
    <title>luke-carl-hartman-web-development-for-denali-innovationscompact-disc-solid</title>
    <desc>Created with Sketch.</desc>
    <g id="Page-1" stroke="none" stroke-width="1" fill="none" fill-rule="evenodd">
        <g id="Catalog" transform="translate(-928.000000, -149.000000)" fill="#7FD2E6">
            <g id="Group-8" transform="translate(928.000000, 145.000000)">
                <g id="compact-disc-solid" transform="translate(0.000000, 4.024862)">
                    <g id="Shape">
                        <path d="M12,0 C5.37096774,0 0,5.37096774 0,12 C0,18.6290323 5.37096774,24 12,24 C18.6290323,24 24,18.6290323 24,12 C24,5.37096774 18.6290323,0 12,0 Z M4.25806452,12 L2.70967742,12 C2.70967742,6.87580645 6.87580645,2.70967742 12,2.70967742 L12,4.25806452 C7.73225806,4.25806452 4.25806452,7.73225806 4.25806452,12 Z M12,16.6451613 C9.43548387,16.6451613 7.35483871,14.5645161 7.35483871,12 C7.35483871,9.43548387 9.43548387,7.35483871 12,7.35483871 C14.5645161,7.35483871 16.6451613,9.43548387 16.6451613,12 C16.6451613,14.5645161 14.5645161,16.6451613 12,16.6451613 Z M12,10.4516129 C11.1435484,10.4516129 10.4516129,11.1435484 10.4516129,12 C10.4516129,12.8564516 11.1435484,13.5483871 12,13.5483871 C12.8564516,13.5483871 13.5483871,12.8564516 13.5483871,12 C13.5483871,11.1435484 12.8564516,10.4516129 12,10.4516129 Z" fill-rule="nonzero"></path>
                    </g>
                </g>
            </g>
        </g>
    </g>
</svg>

<svg width="24" height="24" xmlns="http://www.w3.org/2000/svg"><path d="M12 .025c-6.629 0-12 5.37-12 12 0 6.629 5.371 12 12 12s12-5.371 12-12c0-6.63-5.371-12-12-12zm-7.742 12H2.71c0-5.124 4.166-9.29 9.29-9.29v1.548c-4.268 0-7.742 3.474-7.742 7.742zM12 16.67a4.646 4.646 0 010-9.29 4.646 4.646 0 010 9.29zm0-6.194c-.856 0-1.548.692-1.548 1.549 0 .856.692 1.548 1.548 1.548.856 0 1.548-.692 1.548-1.548 0-.857-.692-1.549-1.548-1.549z" fill="#7FD2E6"/></svg>
